assets/Other/icon-odds.svg

<?xml version="1.0" encoding="UTF-8"?>
<svg viewBox="0 0 18 18" version="1.1" xmlns="http://www.w3.org/2000/svg" xmlns:xlink="http://www.w3.org/1999/xlink">
    <title>icon-odds</title>
    <g id="icon-odds" stroke="none" stroke-width="1" fill-rule="evenodd">
        <path d="M13.8861364,7.91549709 L10.0722077,4.11351193 C9.82896194,3.87102792 9.41306775,4.04276508 9.41306775,4.38567374 L9.41306775,12.7518941 C9.41306775,13.3954513 9.9082514,13.9293071 10.5375446,13.9935251 L10.6650942,14.0000003 C11.3537018,14.0000003 11.9171108,13.4383551 11.9171108,12.7518941 L11.9171108,8.5725729 L13.6131099,8.5725729 C13.9571055,8.5725729 14.1293724,8.15797136 13.8861364,7.91549709 Z M4.11386358,10.0845026 L7.92779231,13.8864878 C8.17103806,14.1289718 8.58693225,13.9572347 8.58693225,13.614326 L8.58693225,5.24810561 C8.58693225,4.60454841 8.0917486,4.07069314 7.46245541,4.00647513 L7.33490584,4 C6.64629816,4 6.08288922,4.5616446 6.08288922,5.24810561 L6.08288922,9.42742683 L4.38689014,9.42742683 C4.04289448,9.42742683 3.8706276,9.84202837 4.11386358,10.0845026 Z"></path>
    </g>
</svg>

<svg xmlns="http://www.w3.org/2000/svg" viewBox="0 0 18 18"><title>icon-odds</title><path fill-rule="evenodd" d="m13.886 7.915-3.814-3.801a.386.386 0 0 0-.659.272v8.366c0 .643.495 1.177 1.125 1.242l.127.006c.689 0 1.252-.562 1.252-1.248v-4.18h1.696a.385.385 0 0 0 .273-.657m-9.772 2.17 3.814 3.801c.243.243.659.071.659-.272V5.248c0-.643-.495-1.177-1.125-1.242L7.335 4c-.689 0-1.252.562-1.252 1.248v4.18H4.387a.385.385 0 0 0-.273.657"/></svg>
